X: 7
M: 6/8
L: 1/8
P: Rondeau
K: A
V: 1
|:\
c3 BAB | E2F E2A | E2A G2A | B3 BAB |\
c3 BAB | E2F E2A | Fdc B2A | HA6 :|
[|\
e2a e2a | cde f3 | df2 df2 | Bcd e3 |\
[|\
c2c cBA | e2e e3 | A2A AGF | G2F E2B |\
c^de fga | ^dcB A3 | GFE TF3 | E6 "_d.C."y|]
V: 2 clef=bass middle=d
|:\
"A"a3 "E"e3 | "A"c2d c2A | "A"c2c "B7"B2A | "E"e3 E3 | "A"a3 "E"e3 |
"A"c2d c2A | "D"d3 "E7"e2E | "A"HA6 :| [| "A"A3 A3 | "A"A3 "D"d3 | "Bm"b3 "E7"g3 |
"E7"e3 "A"c3 | "A"A3 A3 | "A"A3 "E"e3 | "A"A3 "E"e2g | "A"a3 "E7"e3 "_d.C."y|]
[|\
"A"a2a a3 | "E"g2g g3 | "F#m"f2f "B7"^d2B | "E"e3 E3 | "A"A6 |
"B7"B3 c2^d | "E"e2c' "B7"b2B | "E"e6 "_d.C."y|]


